X:1
T:Title
%%score { ( 1 3 ) | ( 2 4 ) }
L:1/8
M:4/4
K:F
V:1 treble nm="Grand Piano"
V:3 treble 
V:2 bass 
V:4 bass 
V:1
 z4 z2[Q:1/4=124] C2 | [CFA]2 [DFAd]2 [CFAc]2 [A,CFA]2 | z2 F4 z2 | [A,CF]2 [A,CE]2 [CG]2 [CF]2 | %4
 E6 z2 | [B,EB]2 [EBe]2 [EBd]2 [CEB]2 | z2 G4 z2 | [B,D]2 [B,C]2 [B,CE]2 [EBd]2 | [FA]2 z2 z4 | %9
 [CFA]2 [DFAd]2 [CFAc]2 [A,CFA]2 | z2 F4 z2 | [A,_EG]2 [A,CEF]2 [EFAc]2 [EFA^c]2 | %12
 [DFBd]6[K:bass][K:treble] z2 | [EGBe]2 [Bd]2 [EGBe]2 [Bd]2 | [DFAd]2 [Ac]2 [DFAd]2 [Ac]2 | %15
 [=B,DFA]2 [B,DG]2 [CEA]2 [EG]2 |[M:3/4] [A,CF]6[K:bass] |[M:1/4] z2 | %18
[M:4/4][K:treble] [EBd]4 [EBc]4 | B6[K:bass] z2 | [A,CG]4 [A,CF]4 | [A,C]6[K:treble] z2 | %22
 [B,CF]2 [CE]2 [CEA]2 [CEG]2 | [DFAd]2 [CFc]2 [A,DFA]2 [A,DF]2 | [=B,DFA]2 [B,DG]2 [FG=Be]2 [Bd]2 | %25
 [EGBd]2 [GBc]2 [G=B]2 [Gc]2 | [EBd]4 [EBc]4 | [EB]6[K:bass] z2 | [^CEA]4[K:treble] z4 | %29
 [A,DF]6 [B,DF]2 | D2- [Df]2 e2 d2 | c2 c2 [D^FB]2 [CFA]2 | A2 z2 z4 |[M:3/4] [A,CF]6[K:bass] |] %34
V:2
 z8 | [F,,F,]2 [C,,C,]2 [F,,F,]2 [C,,C,]2 | [F,,F,]2 [C,,C,]2 [F,,F,]2 [C,,C,]2 | %3
 [G,,F,]2 [C,,C,]2 [A,,A,]2 [_A,,_A,]2 | G,,2 E,,2 C,,2 C2 | [G,,G,]2 [C,,C,]2 [G,,G,]2 [C,,C,]2 | %6
 [G,,G,]2 [C,,C,]2 [G,,G,]2 [C,,C,]2 | [E,,E,]2 [C,,C,]2 [G,,G,]2 [C,,C,]2 | %8
 [F,,F,]2 [^F,,^F,]2 [G,,G,]2 z2 | [F,,F,]2 [C,,C,]2 [F,,F,]2 [C,,C,]2 | %10
 [F,,F,]2 [C,,C,]2 [F,,F,]2 [F,,F,]2 | [F,,F,]2 [F,,F,]2 [F,,F,]2 [F,,F,]2 | %12
 [B,,B,]2 F,,2 D,,2 [B,,,B,,]2 | z2 [DG]2 z2 [DG]2 | z2 [CF]2 z2 [CF]2 | [D,,D,]4 z2 [B,C]2 | %16
[M:3/4] [F,,F,]2 C,,2 F,,,2 |[M:1/4][K:treble] c2 |[M:4/4][K:bass] G,,2 G,2 C,,2 E,2 | [CE]6 z2 | %20
 [F,,F,]2 [C,,C,]2 [A,,,A,,]2 [C,,C,]2 | [F,,F,]2 C,,2 A,,,2 F,,2 | z2 B,2 [C,,C,]2 [B,,,B,,]2 | %23
 [A,,,A,,]4 [D,,D,]2 [D,,D,]2 | [G,,G,]4 z2 [FG]2 | z2 E2 E2 E2 | G,,2 E,2 C,,2 E,2 | C6 z2 | %28
 A,4 z4 | [D,,D,]2 A,,2 F,,2 [D,,D,]2 | [B,,,B,,]4 [=B,,,=B,,]4 | [C,,C,]4 [D,,D,]4 | %32
 [G,,G,]4 z2 [B,C]2 |[M:3/4] [F,,F,]2 C,,2 F,,,2 |] %34
V:3
 x8 | x8 | [A,CG]2 [A,C]2 [A,C]2 [A,C]2 | x8 | [G,B,C]2 [F,B,C]2 [D,B,C]2 z2 | x8 | %6
 [B,CEA]2 [B,CE]2 [B,CE]2 [B,CE]2 | x8 | c2- [_EAc-]2 [=EBc]2 C2 | x8 | %10
 [A,CG]2 [A,C]2 [A,C]2 [A,CF]2 | x8 | z2[K:bass] F,2 D,2[K:treble] [DFBd]2 | x8 | x8 | x8 | %16
[M:3/4] z2[K:bass] C,2 F,,2 |[M:1/4] x2 |[M:4/4][K:treble] z2 C2 z2 C2 | %19
 z2[K:bass] C,2 D,2 [E,B,CE]2 | x8 | z2 C,2 A,,2[K:treble] [A,CD]2 | x8 | x8 | x8 | x8 | %26
 z2 [B,C]2 z2 [B,C]2 | z2[K:bass] C,2 D,2 [E,B,CE]2 | z2 A,,2[K:treble] [A,^CEG]4 | x8 | %30
 G2 z2 [F_A]4 | [FA]4 z4 | [=B,DF]2- [B,DFG]2 [CEA]2 [EG]2 |[M:3/4] z2[K:bass] C,2 F,,2 |] %34
V:4
 x8 | x8 | x8 | x8 | x8 | x8 | x8 | x8 | x8 | x8 | x8 | x8 | x8 | [G,,,G,,]4 [B,,,B,,]4 | %14
 [C,,C,]4 [C,,C,]4 | z4 [C,,C,]4 |[M:3/4] x6 |[M:1/4][K:treble] x2 |[M:4/4][K:bass] x8 | %19
 z2 C,,2 D,,2 E,,2 | x8 | x8 | G,,4 z4 | x8 | z4 [G,,G,]4 | [C,,C,]6 z2 | x8 | z2 C,,2 D,,2 E,,2 | %28
 z2 A,,,2 [=B,,,=B,,]2 [^C,,^C,]2 | x8 | x8 | x8 | z4 [C,,C,]4 |[M:3/4] x6 |] %34

